X:55
T:score146
L:1/8
Q:1/4=96
M:3/4
I:linebreak $
K:Bb
!f! !wedge!F z/(F/ G2 A2 |"_cresc.  -   -   -  " B) z/(c/ d2 ef |!ff! g) z/(a/ Tb2 a!>(!g) | %3
!p!!>)! !wedge!b z/(!>!b/ d4) |$ !wedge!g z/(!>!g/ A4) | !wedge!d z/(!>!d/ =E4) | %6
 !wedge!F z/!<(!(A/ c!<)!e!>(! g>f)!>)! | !wedge!d'!>(! z/(c'/ Pbg f2)!>)! |$ %8
 !wedge!b z/(!>!b/ A4) | !wedge!f z/(!>!f/ =E4) | !wedge!F z/!<(!(A/ ce!<)! Pd!>(!c!>)! | %11
 !wedge!d) z/(F/ B2) z2 |] %12
